X:1
T:Deliver us, O Lord our God - Batten
T:James Gibb editions
T:#
%%score [ 1 2 3 4 ]
L:1/8
Q:1/4=80
M:4/4
K:Eb
V:1 treble nm="Soprano" snm="S"
V:2 treble nm="Alto" snm="A"
V:3 treble-8 nm="Tenor" snm="T"
V:4 bass nm="Bass" snm="B"
V:1
"^Psalm 106:45-46 (BCP)""^Adrian Batten\n(c. 1590-1637)""^Deliver us, O Lord our God"!p! F2 | %1
w: De-|
 A3 B c2 c2 | _d2 c2 =A2 c2 | e3 e d2 cc |[M:4/4] c2 =B2 c2 c2 | z2"^cresc." B2 e2 c>d | %6
w: liv- er us, O|Lord our God, and|ga- ther us from a-|mong the hea- then,|that we may give|
 e3 e d2 e2 | e3 d e2!f! B2 | c3 B =A2 B2- | B2 =A2 B4 |!mf! B3 B e2 d2 | c2 =BB c2 d2 | %12
w: thanks un- to thy|ho- ly Name, and|make our boast of|* thy praise.|Bless- ed be the|Lord God of Is- ra-|
 =B2"^cresc." _B2 B2 G2 | !>!G2 G2 B2 !>!c2- | cd =e2 f2!f! cc | e3 e d2 c2 | c3 =B c2!p! cd | %17
w: el from ev- er-|last- ing and world|* with- out end. And let|all the peo- ple|say A- men. And let|
 e3 d c2 =B2 |"^rit."[Q:1/4=78] c3[Q:1/4=77] !courtesy!_B[Q:1/4=76] =A2!pp![Q:1/4=74] c2- || %19
w: all the peo- ple|say A- men. A\-|
[M:3/2][Q:1/4=73] c[Q:1/4=72]F[Q:1/4=70] B4[Q:1/4=69] =A[Q:1/4=68]G[Q:1/4=68] A4 |] %20
w: * * * * * men.|
V:2
!p! C2 | F3 F =E2 F2 | F2 =E2 F2 !courtesy!_A2 | G3 G G2 FF |[M:4/4] G3 F =E2 E2 | %5
w: De-|liv- er us, O|Lord our God, and|ga- ther us from a-|mong the hea- then,|
 z2"^cresc." G2 G2 !courtesy!_EF | G2 B2 B2 (GA) | B3 A G2!f! G2 | A2 G2 F4 | E2 C2 D4 | %10
w: that we may give|thanks un- to thy *|ho- ly Name, and|make our boast|of thy praise.|
!mf! E3 E G3 F | E2 DG E2 A2 | G2"^cresc." G2 F2 E2 | !>!D2 D2 G2 !>!A2- | %14
w: Bless- ed be the|Lord God of Is- ra-|el from ev- er-|last- ing and world|
 AA G2 F2!f! !courtesy!_AA | G3 A B2 A2 | G3 F =E2!p! AA | G3 F =E2 F2 |"^rit." F2 =E2 F4 || %19
w: * with- out end. And let|all the peo- ple|say A- men. And let|all the peo- ple|say A- men.|
[M:3/2]!pp! F4 F8 |] %20
w: A- men.|
V:3
!p! A2 | c2 A2 G2 A2 | G2 G2 F2 F2 | c3 c B2 ff |[M:4/4][K:treble-8] e2 d2 c2 c2 | %5
w: De-|liv- er us, O|Lord our God, and|ga- ther us from a-|mong the hea- then,|
 z2"^cresc." G2 B2 cc | B2 e2 f2 e2 | f2 B2 B2!f! e2 | e3 d c2 d2 | c4 B4 |!mf! G3 G G2 G2 | %11
w: that we may give|thanks un- to thy|ho- ly Name, and|make our boast of|thy praise.|Bless- ed be the|
 G2 Gd c2 (fe) | d2"^cresc." e2 d2 c2 | !>!=B2 B2 e2 !>!c2- | cc c2 =A2!f! ff | e3 e f3 e | %16
w: Lord God of Is- ra\- *|el from ev- er-|last- ing and world|* with- out end. And let|all the peo- ple|
 d2 d2 c2!p! AA | B3 A G2 F2 |"^rit." G3 G F2!pp! fe ||[M:3/2] d4- d2 c2 c4 |] %20
w: say A- men. And let|all the peo- ple|say A- men. A\- *|* * * men.|
V:4
!p! F,2 | F,3 F, C,2 F,2 | B,,2 C,2 F,2 F,2 | (C,D,E,)F, G,2 A,A, |[M:4/4] G,3 G, C,2 C,2 | %5
w: De-|liv- er us, O|Lord our God, and|ga\- * * ther us from a-|mong the hea- then,|
 z2"^cresc." E,2 E,2 A,A, | G,2 E,2 B,2 C2 | B,3 B, E,2!f! E,2 | A,3 E, F,2 (D,2 | E,2) F,2 B,,4 | %10
w: that we may give|thanks un- to thy|ho- ly Name, and|make our boast of|* thy praise.|
!mf! E,3 E, C,2 =B,,2 | C,2 G,G, A,2 F,2 | G,2"^cresc." E,2 B,,2 C,2 | !>!G,3 G, E,2 !>!A,2- | %14
w: Bless- ed be the|Lord God of Is- ra-|el from ev- er-|last- ing and world|
 A,F, C2 F,2!f! F,F, | C3 C B,2 F,2 | G,3 G, C,2!p! F,F, | E,3 B,, C,2 D,2 | %18
w: * with- out end. And let|all the peo- ple|say A- men. And let|all the peo- ple|
"^rit." C,3 C, D,2!pp! =A,,2 ||[M:3/2] B,,4 F,8 |] %20
w: say A- men. A\-|* men.|

